X: 32359
T: Pint Of Reference
R: reel
M: 4/4
K: Bminor
AB~B2 dB~B2|ABBA BAGA|~F3E FG~F2-|FEFG AGFD|
AB~B2 dB~B2|ABBA BAGA|~F3E FG~F2-|1 FEFG A2z2:|2 FEFG ABde||
|:~f3d ~B3f|efec A2GA|~F3E FG~F2-|FEFG ABde|
~f3d B3f|efec A2cA|BcdB cde2-|1 ecBA Bcde:|2 ecBA B2z2||

